!!!OTL: WILHELM KOMM AN MEINE SEITE
!!!ARE: Europa, Mitteleuropa, Deutschland, Brandenburg
!!!SCT: E0347B
!!!YEM: Copyright 1995, estate of Helmut Schaffrath.
**kern
*ICvox
*Ivox
*M4/4
*k[b-e-a-]
*E-:
{8g
8f
=1
4.e-
8e-
4e-
8d
8e-
=2
8g
8f
4f
4r}
{8b-
8g
=3
4.f
8f
4f
8b-
8a-
=4
2g
4r}
{8e-
8f
=5
4.g
8e-
4g
8f
8e-
=6
8.c
16cc
2cc}
{16b-
16a-
16g
16f
=7
4.e-
8g
4.b-
8d
=8
2e-
4r}
{8e-
8f
=9
4.g
8e-
4g
8f
8e-
=10
8.c
16cc
2cc}
{16b-
16a-
16g
16f
=11
4.e-
8g
4.b-
8d
=12
2e-
4r}
==
!!!AGN: historisches Lied, Tod Koenigin Louise (1810)
!!!ONB: ESAC (Essen Associative Code) Database: ERK1
!!!AMT: simple quadruple
!!!AIN: vox
!!!EED: Helmut Schaffrath
!!!EEV: 1.0
*-
